X:139
T:C?line
O:France
R:Polka
A:Provence
C: ???
Z:Transcrit et/ou corrig? par Michel BELLON - 2005-03-03
Z:Pour toute observation mailto:galouvielle@free.fr
M:2/4
Q:1/4=110
L:1/16
K:Bbmajor
f4>=e4|_e4>e4|c2B2 A2G2|F2^F2 G2F2|F2e2 c2f2|:.F.B.F.B .d.f.d.B|.F.B.F.B .d.f.d.B|
.A.cA.c gzfz|.A.cA.c gzfz|.F.B.F.B .d.f.d.B|.F.B.F.B .d.f.d.B|
AcAc gfec|B2B2 B2z2::[K:F](c2AB .c.d.e.f)|c2A2 c2z2|(BA)Bc (ed)cB|(AB)AG AzFz|
(c2AB .c.d.e.f)|c2A2 c2z2|(e2 ed cBAG)|[1 F2cc c2c2:|[2 F2F2 F2z2||
[K:Bbmajor].F.B.F.B .d.f.d.B|.F.B.F.B .d.f.d.B|.A.cA.c gzfz|.A.cA.c gzfz|.F.B.F.B .d.f.d.B|
.F.B.F.B .d.f.d.B|AcAc gfec|B2B2 B2z2||[K:Ebmajor]"Trio"e2ee e2c2|B4>c4|B2A2 G2F2|:
(3GGG(3BBB (3AAA(3ccc|(3BBB(3GGG (3BBB(3eee|(3ggg(3fff (3eee(3BBB|(d4c2)z2|
(3ccc(3fff (3ccc(3eee|(3ddd(3ccc (3BBB(3ccc|(3ddd(3ccc (3BBB(3AAA|(^F4G2)z2|
(3GGG(3BBB (3AAA(3ccc|(3BBB(3GGG (3BBB(3eee|(3ggg(3fff (3eee(3BBB|(e4c2)z2|
(3ccc(3eee (3ddd(3ccc|(3BBB(3eee (3GGG(3ccc|(3BBB(3=AAA (3_AAA(3FFF|EGBG e2z2:|
[K:Bbmajor].B.F.B.d .c.F.A.c|.B.F.B.d .c.F.A.c|B2(3BBB (3ddd(3fff|b4z2b2|b4z2b2|b8"FIN"|]
<end>
<start>
